X:18
T:Weatherall’s Quick Step. RH.018
R:Quickstep
S:Rev.R.Harrison’s MS,c1815,Cumbria
O:England
A:Temple Sowerby,Cumbria
Z:vmp.Simon Wilson. Review PJH, 2008.
M:6/8
L:1/8
Q:3/8=110
K:D
A|d2d f2d|fg/a/f d2A|B2B g2f|efd cBA|\
d2d f2d|fg/a/f d2A|Bgf edc|d3- d2:|!
|:A|B2G GBd|A2F FAd|Bcd efg|fed cBA|\
B2G GBd|A2F FAd|Bgf edc|d3- d2:|

